source/images/icons/icon-editorial/cloche.svg

<?xml version="1.0" encoding="UTF-8"?>
<svg width="80px" height="80px" viewBox="0 0 80 80" version="1.1" xmlns="http://www.w3.org/2000/svg" xmlns:xlink="http://www.w3.org/1999/xlink">
    <!-- Generator: Sketch 55.2 (78181) - https://sketchapp.com -->
    <title>Illustrative Icons/Cloche</title>
    <desc>Created with Sketch.</desc>
    <g id="Illustrative-Icons/Cloche" stroke="none" stroke-width="1" fill="none" fill-rule="evenodd">
        <path d="M67.6951074,60.6666667 C63.0651074,57.2000001 60.6184408,52.5466667 60.6184408,47.2083334 L60.6184408,27.9383334 C60.6321681,23.4023801 59.1599039,18.9867582 56.4267741,15.3666667 C53.7567475,11.8270154 50.0398456,9.21806987 45.8034407,7.91 C45.2338998,7.73613075 44.6148642,7.87931538 44.1795186,8.28561764 C43.7441729,8.6919199 43.5586566,9.2996128 43.6928519,9.87978431 C43.8270472,10.4599558 44.2605665,10.9244641 44.8301074,11.0983333 C48.3920926,12.1990181 51.5170753,14.3933286 53.7617741,17.37 C56.0589015,20.4128064 57.2964039,24.1241429 57.2851074,27.9366667 L57.2851074,47.2083334 C57.2851074,52.1883334 59.0301074,56.6566667 62.3751074,60.3333334 L47.3901074,60.3333334 C46.4696328,60.3333334 45.7234407,61.0795255 45.7234407,62.0000001 C45.7234407,65.3367204 43.0184944,68.0416667 39.6817741,68.0416667 C36.3450537,68.0416667 33.6401074,65.3367204 33.6401074,62.0000001 C33.6401074,61.0795255 32.8939153,60.3333334 31.9734407,60.3333334 L16.986774,60.3333334 C20.331774,56.6566667 22.076774,52.1883334 22.076774,47.2083334 L22.076774,27.9383334 C22.0566958,20.2716352 27.0173589,13.4799139 34.3267741,11.1666667 C35.1873208,10.8747457 35.6554169,9.94728169 35.379123,9.08159108 C35.1028291,8.21590047 34.1839914,7.73109039 33.3134407,7.99166667 C24.6339665,10.765009 18.7432597,18.8315443 18.7434407,27.9433334 L18.7434407,47.2083334 C18.7434407,52.5416667 16.296774,57.1983334 11.666774,60.6666667 C11.0928668,61.0970971 10.8587785,61.8464761 11.0856352,62.5270463 C11.3124919,63.2076166 11.94939,63.6666667 12.666774,63.6666667 L30.4584407,63.6666667 C31.2660643,68.1266552 35.1492523,71.3698204 39.6817741,71.3698204 C44.2142958,71.3698204 48.0974838,68.1266552 48.9051074,63.6666667 L66.6967741,63.6666667 C67.4141581,63.6666667 68.0510562,63.2076166 68.2779129,62.5270463 C68.5047697,61.8464761 68.2706813,61.0970971 67.6967741,60.6666667 L67.6951074,60.6666667 Z M39.6817741,10.3333333 C40.6022486,10.3333333 41.3484407,9.58714125 41.3484407,8.66666667 C41.3484407,7.74619208 40.6022486,7 39.6817741,7 C38.7612995,7 38.0151074,7.74619208 38.0151074,8.66666667 C38.0151074,9.58714125 38.7612995,10.3333333 39.6817741,10.3333333 Z" id="Shape-color" fill="#ADB5BD"></path>
    </g>
</svg>

<svg width="80" height="80">
    <title>
        Illustrative Icons/Cloche
    </title>
    <path d="M67.695 60.667c-4.63-3.467-7.077-8.12-7.077-13.459v-19.27a20.76 20.76 0 0 0-4.191-12.571A21.107 21.107 0 0 0 45.803 7.91a1.667 1.667 0 1 0-.973 3.188 17.75 17.75 0 0 1 8.932 6.272 17.452 17.452 0 0 1 3.523 10.567v19.271c0 4.98 1.745 9.449 5.09 13.125H47.39c-.92 0-1.667.747-1.667 1.667a6.042 6.042 0 0 1-12.083 0c0-.92-.746-1.667-1.667-1.667H16.987c3.345-3.676 5.09-8.145 5.09-13.125v-19.27a17.543 17.543 0 0 1 12.25-16.771 1.667 1.667 0 0 0-1.014-3.175 20.945 20.945 0 0 0-14.57 19.951v19.265c0 5.334-2.446 9.99-7.076 13.459a1.667 1.667 0 0 0 1 3h17.791a9.373 9.373 0 0 0 18.447 0h17.792a1.667 1.667 0 0 0 1-3h-.002zM39.682 10.333a1.667 1.667 0 1 0 0-3.333 1.667 1.667 0 0 0 0 3.333z" fill="#ADB5BD" fill-rule="evenodd"/>
</svg>
